X: 1
T: The Duke of Atholl's Reel
T: 8x32J 2C (RSCDS 16-3)
P: The Athole Highlanders
C: Traditional, from Anselm Lingnau
R: Jig (8x32)
M: 6/8
L: 1/8
K: A
|:"2x"c/d/|"A"e3  ecA|ecA "E"Bcd|1 "A"e3  ecA|"E"Bcd "A"cBA:|2 \
        "A"eae "D"fed|"E"cdB "A"A2:|
|:"2x"e   |"A"Ace Ace|"D"Adf Adf|1 "A"Ace Ace|"E"Bcd "A"cBA:|2 \
        "A"eae "D"fed|"E"cdB "A"A2:|
|:"2x"e   |"A"a2e edc|a2e edc|1 a2e edc|"E"Bcd "A"cBA:|2 \
        "A"eae "D"fed|"E"cdB "A"A2:|
|:"2x"A   |"A"cAc cAc|"D (Bm)"dBd dBd|1 "A"cAc cAc|"G"B=GB Bcd :|2 \
        "A"eae "D"fed|"E"cdB "A"A2:|
